X:394
T:B394-  Robin Hood and the Bishop of Hereford
S:(2nd/2)
Q:1/4=120
L:1/4
M:C
K:C
G|cc/c/cc/c/|c/f/e/d/cc|c/c/BAd|G3G|\
cc/B/AA/A/|G/A/G/F/EE/E/|FA/A/GB|c3|]

